libs/icons/src/svg/access-key.svg

<svg width="16" height="16" viewBox="0 0 16 16" fill="none" xmlns="http://www.w3.org/2000/svg">
<g clip-path="url(#clip0_3_3358)">
<path fill-rule="evenodd" clip-rule="evenodd" d="M13.6 3.29999L15.1 1.79999C15.4 1.49999 15.4 1.09999 15.1 0.899988C14.8 0.599988 14.4 0.599988 14.2 0.899988L12.2 2.89999L10.2 4.89999L7.40005 7.59999C5.60005 6.19999 3.00005 6.39999 1.40005 7.99999C-0.399951 9.79999 -0.399951 12.8 1.40005 14.6C3.20005 16.4 6.20005 16.4 8.00005 14.6C9.70005 12.9 9.80005 10.3 8.40005 8.49999L10.7 6.19999L12.2 7.69999C12.5 7.99999 12.9 7.99999 13.1 7.69999L15.1 5.69999C15.4 5.39999 15.4 4.99999 15.1 4.79999L13.6 3.29999ZM7.00005 13.7C5.70005 15 3.60005 15 2.30005 13.7C1.00005 12.4 1.00005 10.3 2.30005 8.99999C3.60005 7.69999 5.70005 7.69999 7.00005 8.99999C8.30005 10.3 8.30005 12.4 7.00005 13.7ZM12.7 6.39999L11.6 5.29999L12.7 4.19999L13.8 5.29999L12.7 6.39999Z" fill="#202327"/>
</g>
<defs>
<clipPath id="clip0_3_3358">
<rect width="16" height="16" fill="white"/>
</clipPath>
</defs>
</svg>

<svg xmlns="http://www.w3.org/2000/svg" viewBox="0 0 16 16" class="sageicon"><path fill-rule="evenodd" d="m13.6 3.3 1.5-1.5c.3-.3.3-.7 0-.9-.3-.3-.7-.3-.9 0l-2 2-2 2-2.8 2.7C5.6 6.2 3 6.4 1.4 8c-1.8 1.8-1.8 4.8 0 6.6 1.8 1.8 4.8 1.8 6.6 0a4.6 4.6 0 0 0 .4-6.1l2.3-2.3 1.5 1.5c.3.3.7.3.9 0l2-2c.3-.3.3-.7 0-.9l-1.5-1.5ZM7 13.7a3.32 3.32 0 0 1-4.7 0 3.32 3.32 0 0 1 0-4.7C3.6 7.7 5.7 7.7 7 9c1.3 1.3 1.3 3.4 0 4.7Zm5.7-7.3-1.1-1.1 1.1-1.1 1.1 1.1-1.1 1.1Z"/></svg>
